Gruvbox-Plus-Dark/actions/16/semi-starred.svg

<svg xmlns="http://www.w3.org/2000/svg" width="16" height="16" version="1.1" viewBox="0 0 16 16">
 <defs>
  <style id="current-color-scheme" type="text/css">
   .ColorScheme-Text { color:#ebdbb2; } .ColorScheme-Highlight { color:#458588; }
  </style>
 </defs>
 <path style="fill:currentColor" class="ColorScheme-Text" d="M 8 0.390625 L 8 12.40625 L 12.943359 15.607422 L 11.427734 9.9160156 L 16 6.2011719 L 10.119141 5.8847656 L 8 0.390625 z"/>
 <path style="opacity:0.3;fill:currentColor" class="ColorScheme-Text" d="M 8 0.390625 L 5.8808594 5.8847656 L 0 6.2011719 L 4.5722656 9.9160156 L 3.0566406 15.607422 L 8 12.40625 L 8 0.390625 z"/>
</svg>

<svg width="16" height="16" version="1.1" viewBox="0 0 16 16" xmlns="http://www.w3.org/2000/svg">
  <defs>
    <style type="text/css">.ColorScheme-Text { color:#ebdbb2; } .ColorScheme-Highlight { color:#458588; }</style>
  </defs>
  <path class="ColorScheme-Text" d="m8 0.3906v12.02l4.943 3.201-1.516-5.691 4.572-3.715-5.881-0.3164-2.119-5.494z" fill="currentColor"/>
  <path class="ColorScheme-Text" d="m8 0.3906-2.119 5.494-5.881 0.3164 4.572 3.715-1.516 5.691 4.943-3.201v-12.02z" fill="currentColor" opacity=".3"/>
</svg>
